16x16/actions/path-combine.svg

<svg xmlns="http://www.w3.org/2000/svg" viewBox="0 0 16 16">
  <defs id="defs3051">
    <style type="text/css" id="current-color-scheme">
      .ColorScheme-Text {
        color:#5d656b;
      }
      .ColorScheme-Highlight {
        color:#3daee9;
      }
      </style>
  </defs>
  <path 
        style="fill:currentColor;fill-opacity:0.5;stroke:none"
        d="M 9.5 3 A 3.5 3.5 0 0 0 6.0410156 6 L 10 6 L 10 9.9609375 A 3.5 3.5 0 0 0 13 6.5 A 3.5 3.5 0 0 0 9.5 3 z M 6.0410156 6 A 3.5 3.5 0 0 0 6.0117188 6.28125 A 3.5 3.5 0 0 1 6.0410156 6 z M 6 6.5 A 3.5 3.5 0 0 0 6.015625 6.8105469 A 3.5 3.5 0 0 1 6 6.5 z M 6.0332031 6.9492188 A 3.5 3.5 0 0 0 6.0390625 7 L 3 7 L 3 13 L 9 13 L 9 9.9609375 A 3.5 3.5 0 0 1 6.0332031 6.9492188 z M 9.0644531 9.96875 A 3.5 3.5 0 0 0 9.1875 9.984375 A 3.5 3.5 0 0 1 9.0644531 9.96875 z M 9.8378906 9.9804688 A 3.5 3.5 0 0 1 9.5 10 A 3.5 3.5 0 0 0 9.8378906 9.9804688 z "
        class="ColorScheme-Text"
        />
  <path
        style="fill:currentColor;fill-opacity:1;stroke:none"
        d="M 9.5039062 2 A 4.5 4.5 0 0 0 5.0371094 6 L 2 6 L 2 14 L 10 14 L 10 10.970703 A 4.5 4.5 0 0 0 14.003906 6.5 A 4.5 4.5 0 0 0 9.5039062 2 z M 9.5039062 3 A 3.5 3.5 0 0 1 13.003906 6.5 A 3.5 3.5 0 0 1 10 9.9609375 L 10 6 L 6.0449219 6 A 3.5 3.5 0 0 1 9.5039062 3 z M 3 7 L 5.0351562 7 A 4.5 4.5 0 0 0 9 10.966797 L 9 13 L 3 13 L 3 7 z M 6.0429688 7 L 9 7 L 9 9.9589844 A 3.5 3.5 0 0 1 6.0429688 7 z "
        class="ColorScheme-Highlight"
      />
</svg>

<svg xmlns="http://www.w3.org/2000/svg" viewBox="0 0 16 16"><path style="fill:currentColor;fill-opacity:.5;stroke:none;color:#5d656b" d="M9.5 3a3.5 3.5 0 0 0-3.459 3H10v3.96a3.5 3.5 0 0 0 3-3.46A3.5 3.5 0 0 0 9.5 3zM6.041 6a3.5 3.5 0 0 0-.03.281A3.5 3.5 0 0 1 6.042 6zM6 6.5a3.5 3.5 0 0 0 .016.31A3.5 3.5 0 0 1 6 6.5zm.033.45A3.5 3.5 0 0 0 6.04 7H3v6h6V9.96a3.5 3.5 0 0 1-2.967-3.01zm3.031 3.019a3.5 3.5 0 0 0 .123.015 3.5 3.5 0 0 1-.123-.015zm.774.011A3.5 3.5 0 0 1 9.5 10a3.5 3.5 0 0 0 .338-.02z"/><path style="fill:currentColor;fill-opacity:1;stroke:none;color:#3daee9" d="M9.504 2a4.5 4.5 0 0 0-4.467 4H2v8h8v-3.03a4.5 4.5 0 0 0 4.004-4.47 4.5 4.5 0 0 0-4.5-4.5zm0 1a3.5 3.5 0 0 1 3.5 3.5A3.5 3.5 0 0 1 10 9.96V6H6.045a3.5 3.5 0 0 1 3.459-3zM3 7h2.035A4.5 4.5 0 0 0 9 10.967V13H3V7zm3.043 0H9v2.959A3.5 3.5 0 0 1 6.043 7z"/></svg>
